!!! OTL: Literature8
!!! Chapter: 5
!!! Section: I
!!! Page: 346
!!! Mode: 
!!! Encoder: DJB
**kern
*staff1
*I"Piano
=1-
*clefG2
*k[f#c#]
*D:
*M4/4
4f#/
4g/
4a/
8b\L
8cc#\J
=2
2dd\
2a/
=3
4g/
4f#/
4e/
8f#/L
8d/J
=4
2e/
2A/
=5
4f#/
4g/
4a/
8b\L
8cc#\J
=6
2dd\
2a/
=7
4b\
4g/
4e/
4a/
=8
1d
==
*-
